X: 33307
T: Quail's Lament
R: waltz
M: 3/4
K: Gminor
BAG BAG|D6|dcB dcB|G6|ABc FFE|DE F2 B2|c2 A2 ed|d6|
cd e2 f2|dc B2 G2|A^GA BcF|E2 E4|DGA BcA|BAG DBG|AGF DA,D|G6||
g2 fece|e2 d4|g2 fecA|d6|e2 ecde|BA G2 D2|EDE cBA|G6|
CB, A,2 D2|B,2 G,3 G,|A,B, C2 E2|D2 G4|AGA^FGA|BAG=F E2|Ec B2 DA|G6||

